X:1
T:Reel du Semeur
M:2/4
L:1/16
R:Polka
O:Quebec
K:D
|:FG|"D"ABAG .F2.A2|f4d2 AA|ABAG .F2.A2|f4d2e2|
"Em"e2>e2 "A".g2.e2|"D"dcde "Bm"fafd|"Em"c2>d2 "A7".e2.c2|1"D"eddd "A7".d2:|2"A7"eddd "D7".d2||
|:fg|"G".a2.g2 "A7"e4|"D".g2.f2 "Bm"d4|"Em"f2>e2 "A7".B2.c2|"D"dcde "D7"f2 fg|
"G".a2.g2 "A7"e4|"D".g2.f2 "Bm"d2c2|"Em"B2g2 "A7"e2c2|"D"d4d2:|
